Cast/src/assets/Celulares.svg

<svg width="121" height="150" viewBox="0 0 121 150" fill="none" xmlns="http://www.w3.org/2000/svg">
<path fill-rule="evenodd" clip-rule="evenodd" d="M53.0008 0.483328C49.4007 -0.925652 45.3401 0.850607 43.9311 4.4507L0.483329 115.464C-0.92565 119.065 0.850598 123.125 4.45069 124.534L67.7737 149.317C71.3738 150.726 75.4345 148.95 76.8435 145.35L120.291 34.336C121.7 30.7359 119.924 26.6752 116.324 25.2662L53.0008 0.483328ZM109.149 35.9076L50.6844 13.026L14.0332 106.674L72.4982 129.555L109.149 35.9076ZM33.4205 125.215C34.4064 123.238 36.8082 122.435 38.7852 123.42C40.7621 124.406 41.5655 126.808 40.5796 128.785C39.5937 130.762 37.1918 131.565 35.2149 130.58C33.2379 129.594 32.4345 127.192 33.4205 125.215ZM83.0002 16C81.8956 16 81.0002 16.8954 81.0002 18C81.0002 19.1046 81.8956 20 83.0002 20C84.1048 20 85.0002 19.1046 85.0002 18C85.0002 16.8954 84.1048 16 83.0002 16ZM104 30C104 29.4477 104.448 29 105 29C105.552 29 106 29.4477 106 30C106 30.5523 105.552 31 105 31C104.448 31 104 30.5523 104 30ZM75.4951 19.1072C75.3402 19.048 75.1666 19.1256 75.1073 19.2806C75.0481 19.4355 75.1257 19.6091 75.2807 19.6684L88.3133 24.6489C88.4683 24.7082 88.6419 24.6305 88.7011 24.4756C88.7603 24.3206 88.6827 24.147 88.5278 24.0878L75.4951 19.1072Z" fill="#469BFF"/>
</svg>

<?xml version="1.0" encoding="utf-8"?>
<!-- Generator: Adobe Illustrator 27.0.1, SVG Export Plug-In . SVG Version: 6.00 Build 0)  -->
<svg version="1.1" id="Capa_1" xmlns="http://www.w3.org/2000/svg" xmlns:xlink="http://www.w3.org/1999/xlink" x="0px" y="0px"
	 viewBox="0 0 121 150" style="enable-background:new 0 0 121 150;" xml:space="preserve">
<style type="text/css">
	.st0{fill-rule:evenodd;clip-rule:evenodd;fill:#469BFF;}
</style>
<g>
	<path class="st0" d="M53,0.5c-3.6-1.4-7.7,0.4-9.1,4l-43.4,111c-1.4,3.6,0.4,7.7,4,9.1l63.3,24.8c3.6,1.4,7.7-0.4,9.1-4l43.4-111
		c1.4-3.6-0.4-7.7-4-9.1L53,0.5z M109.1,35.9L50.7,13L14,106.7l58.5,22.9L109.1,35.9z M33.4,125.2c1-2,3.4-2.8,5.4-1.8
		c2,1,2.8,3.4,1.8,5.4c-1,2-3.4,2.8-5.4,1.8C33.2,129.6,32.4,127.2,33.4,125.2z M83,16c-1.1,0-2,0.9-2,2s0.9,2,2,2s2-0.9,2-2
		S84.1,16,83,16z M104,30c0-0.6,0.4-1,1-1s1,0.4,1,1s-0.4,1-1,1S104,30.6,104,30z M75.5,19.1c-0.2-0.1-0.3,0-0.4,0.2
		c-0.1,0.2,0,0.3,0.2,0.4l13,5c0.2,0.1,0.3,0,0.4-0.2c0.1-0.2,0-0.3-0.2-0.4L75.5,19.1z"/>
</g>
</svg>
